docs/.gitbook/assets/icon-boat-16@dark.svg

<svg width="32" height="32" viewBox="0 0 16 16" fill="none" xmlns="http://www.w3.org/2000/svg">
<rect x="0" y="0" width="16" height="16" fill="#181c1f"/>
<path fill-rule="evenodd" clip-rule="evenodd" d="M8.44537 1.06465C8.71621 0.944269 9.03253 0.994672 9.25254 1.19326L13.4212 4.95611C14.6325 6.04948 13.8201 8 12.2324 8H9.5V10H14.25C14.5244 10 14.7768 10.1498 14.9083 10.3906C15.0398 10.6314 15.0292 10.9248 14.8809 11.1556L13.2213 13.7371C12.7153 14.5242 11.8438 15 10.9081 15H4.91065C3.92379 15 3.01259 14.4712 2.52298 13.6144L1.09882 11.1221C0.966174 10.89 0.967126 10.6048 1.10132 10.3736C1.23551 10.1423 1.48265 10 1.75 10H4.5V7.75C4.5 7.33579 4.83579 7 5.25 7C5.66421 7 6 7.33579 6 7.75V10H8V7.25V1.75C8 1.45362 8.17454 1.18503 8.44537 1.06465ZM8.75 11.5H5.25H3.04238L3.82534 12.8702C4.04789 13.2596 4.46207 13.5 4.91065 13.5H10.9081C11.3334 13.5 11.7296 13.2837 11.9596 12.9259L12.8763 11.5H8.75ZM9.5 6.5H12.2324C12.4971 6.5 12.5703 6.20874 12.4161 6.06958L9.5 3.43734V6.5Z" fill="#fff"/>
</svg>

<svg xmlns="http://www.w3.org/2000/svg" width="32" height="32" fill="none" viewBox="0 0 16 16"><path fill="#181c1f" d="M0 0h16v16H0z"/><path fill="#fff" fill-rule="evenodd" d="M8.445 1.065a.75.75 0 0 1 .808.128l4.168 3.763C14.633 6.05 13.821 8 12.232 8H9.5v2h4.75a.75.75 0 0 1 .63 1.156l-1.659 2.581A2.75 2.75 0 0 1 10.908 15H4.911a2.75 2.75 0 0 1-2.388-1.386l-1.424-2.492A.75.75 0 0 1 1.75 10H4.5V7.75a.75.75 0 0 1 1.5 0V10h2V1.75a.75.75 0 0 1 .445-.685M8.75 11.5H3.042l.783 1.37c.223.39.637.63 1.086.63h5.997a1.25 1.25 0 0 0 1.052-.574l.916-1.426zm.75-5h2.732a.248.248 0 0 0 .184-.43L9.5 3.437z" clip-rule="evenodd"/></svg>
